assets/chains/polymesh.svg

<svg  width="56"  viewBox="0 0 16 16" fill="none" xmlns="http://www.w3.org/2000/svg">
<circle cx="8" cy="8" r="7" fill="white"/>
<path d="M9.90863 7.5847C9.66854 7.79781 9.27757 7.91327 8.71681 7.91327H6.20865V11.7349H7.25745V8.90727H8.84834C9.34806 8.90727 9.78535 8.81776 10.1575 8.63546L10.1582 8.63515C10.5369 8.44578 10.8341 8.1795 11.0476 7.83646C11.262 7.49185 11.3675 7.08461 11.3675 6.61831C11.3675 6.15448 11.2631 5.68216 11.0476 5.33586C10.8341 4.9928 10.5368 4.73005 10.1578 4.54798C9.78556 4.35825 9.34813 4.26506 8.84834 4.26506H6.20865V5.25906H8.71681C9.27795 5.25906 9.66906 5.37467 9.90912 5.58806C10.1466 5.79912 10.2748 6.17814 10.2748 6.61831C10.2748 7.04605 10.1493 7.36378 9.90863 7.5847Z" fill="url(#paint0_linear_6123_2273)"/>
<path fill-rule="evenodd" clip-rule="evenodd" d="M16 8C16 12.4183 12.4183 16 8 16C3.58172 16 0 12.4183 0 8C0 3.58172 3.58172 0 8 0C12.4183 0 16 3.58172 16 8ZM14.952 8C14.952 11.8395 11.8395 14.952 8 14.952C4.16052 14.952 1.048 11.8395 1.048 8C1.048 4.16052 4.16052 1.048 8 1.048C11.8395 1.048 14.952 4.16052 14.952 8Z" fill="url(#paint1_linear_6123_2273)"/>
<defs>
<linearGradient id="paint0_linear_6123_2273" x1="36.9349" y1="4.12138" x2="36.9066" y2="18.5174" gradientUnits="userSpaceOnUse">
<stop stop-color="#FF2E72"/>
<stop offset="0.934908" stop-color="#4A125E"/>
</linearGradient>
<linearGradient id="paint1_linear_6123_2273" x1="36.9349" y1="4.12138" x2="36.9066" y2="18.5174" gradientUnits="userSpaceOnUse">
<stop stop-color="#FF2E72"/>
<stop offset="0.934908" stop-color="#4A125E"/>
</linearGradient>
</defs>
</svg>

<svg viewBox="0 0 16 16" xmlns="http://www.w3.org/2000/svg">
    <path fill="#fff" d="M15 8A7 7 0 1 1 1 8a7 7 0 0 1 14 0Z"/>
    <linearGradient id="a" x1="36.935" y1="4.121" x2="36.907" y2="18.517" gradientUnits="userSpaceOnUse">
        <stop offset="0" stop-color="#ff2e72"/>
        <stop offset=".935" stop-color="#4a125e"/>
    </linearGradient>
    <path fill="url(#a)" d="M9.909 7.585c-.24.213-.631.328-1.192.328H6.209v3.822h1.048V8.907h1.591c.5 0 .937-.09 1.31-.272.379-.19.676-.455.89-.799.214-.344.32-.751.32-1.218 0-.464-.105-.936-.32-1.282a2.088 2.088 0 0 0-.89-.788c-.372-.19-.81-.283-1.31-.283h-2.64v.994h2.509c.561 0 .952.116 1.192.33.238.21.366.59.366 1.03 0 .427-.126.745-.366.966Z"/>
    <linearGradient id="b" x1="36.935" y1="4.121" x2="36.907" y2="18.517" gradientUnits="userSpaceOnUse">
        <stop offset="0" stop-color="#ff2e72"/>
        <stop offset=".935" stop-color="#4a125e"/>
    </linearGradient>
    <path fill="url(#b)" fill-rule="evenodd" d="M16 8A8 8 0 1 1 0 8a8 8 0 0 1 16 0Zm-1.048 0A6.952 6.952 0 1 1 1.048 8a6.952 6.952 0 0 1 13.904 0Z"/>
</svg>
